X: 1
T:Eamonn an Chnoic (Ned of the Hill)
M:3/4
L:1/8
Q:75
R:Air
K:F
dc|{A}B2 G3 A|B4 {d}Bc|d2 b3 a|g4 g2|f4 dc|
B4 cd|_e3 d cB|G4 dc|B2 G3 A|B3 B Bc|d2 b3 a|
g4 b2|f4 dc|B4 cd|c4 Bc|B4 Bd||g2 _e2 b2-|
bg f2 d2-|df g2 b2|bg f2 fg|f2 d2 c2|B4 (3Bcd|_e3 d cB|
G4 dc|B2 G3 A|B4 Bc|d2 b3 a|g4 ag|f4 dc|
B4 cd|c4 Bc|B4 {B}dc||{d}B2 G3 A|B3 c Bc|d2 b3 a|
{f}g4 b a/2g/2|f4 dc|B4 cd|_e3 d e/2d/2c/2B/2|G3 c dc|B2 {d}G3 A/2G/2|
B3 c dc|d2 b3 a|g4 b a/2g/2|f2 d2 c2|{A}B4 A B/2c/2|d2 B2 c2|
B4 Bd||g2 f_e b2-|bg f2 d2|c/2d/2_e/2f/2 g2 b2-|bg f2 fg|f2 d2 c2|
B3 B cd|_e3 d cB|G4 dc|B2 G3 G/2A/2|B4 Bc|d2 b3 a|
g4 (3gag|f2 d2 c2|B3 B cd|c4 Bc|B4||
